assets/features/global-acquiring/bank-transfer.svg

<svg width="108" height="16" viewBox="0 0 108 16" fill="none" xmlns="http://www.w3.org/2000/svg">
<rect width="24" height="16" rx="4" fill="#1434CB"/>
<path d="M14.8638 4.81201C13.4921 4.81201 12.2661 5.52257 12.2661 6.83537C12.2661 8.34089 14.4403 8.44487 14.4403 9.20121C14.4403 9.51967 14.0751 9.80475 13.4514 9.80475C12.5662 9.80475 11.9045 9.40641 11.9045 9.40641L11.6215 10.7312C11.6215 10.7312 12.3836 11.0677 13.3955 11.0677C14.8953 11.0677 16.0755 10.3222 16.0755 8.98697C16.0755 7.3961 13.8923 7.2952 13.8923 6.59321C13.8923 6.3437 14.1921 6.07037 14.814 6.07037C15.5158 6.07037 16.0883 6.36007 16.0883 6.36007L16.3654 5.08059C16.3654 5.08059 15.7424 4.81201 14.8638 4.81201ZM2.31325 4.90859L2.28003 5.10171C2.28003 5.10171 2.85715 5.20726 3.37694 5.41782C4.04619 5.65924 4.09389 5.7998 4.2066 6.23635L5.43484 10.9681H7.08135L9.6179 4.90859H7.97517L6.34529 9.02845L5.68021 5.53625C5.61922 5.13658 5.31025 4.90859 4.93207 4.90859H2.31325ZM10.2785 4.90859L8.98979 10.968H10.5563L11.8404 4.90857H10.2785V4.90859ZM19.0152 4.90859C18.6374 4.90859 18.4373 5.11068 18.2904 5.46383L15.9955 10.968H17.6382L17.956 10.0507H19.9573L20.1506 10.968H21.6L20.3355 4.90859H19.0152ZM19.2288 6.54567L19.7157 8.81947H18.4112L19.2288 6.54567Z" fill="white"/>
<rect x="28" width="24" height="16" rx="4" fill="black"/>
<path d="M37.719 11.7895C39.8393 11.7895 41.5581 10.0659 41.5581 7.93983C41.5581 5.81375 39.8393 4.09021 37.719 4.09021C35.5987 4.09021 33.8799 5.81375 33.8799 7.93983C33.8799 10.0659 35.5987 11.7895 37.719 11.7895Z" fill="#EB001B"/>
<path d="M42.3562 11.7895C44.4765 11.7895 46.1953 10.0659 46.1953 7.93983C46.1953 5.81375 44.4765 4.09021 42.3562 4.09021C40.2359 4.09021 38.5171 5.81375 38.5171 7.93983C38.5171 10.0659 40.2359 11.7895 42.3562 11.7895Z" fill="#F79E1B"/>
<path d="M40.0367 4.86554C40.961 5.56791 41.5562 6.68097 41.5562 7.93219C41.5562 9.18341 40.961 10.2984 40.0367 11.0008C39.1123 10.2984 38.5171 9.18533 38.5171 7.93219C38.5171 6.67905 39.1142 5.56791 40.0367 4.86554Z" fill="#FF5F00"/>
<rect x="56" width="24" height="16" rx="4" fill="#016FD0"/>
<path d="M70.199 14.3384V8.86115H76.0056L76.6286 9.67229L77.2723 8.86115H79.9999V10.0155L78.6908 11.5466L79.9999 13.0777V14.3384H77.223L76.6009 13.5099L75.9692 14.3384L70.199 14.3384Z" fill="white"/>
<path d="M68 7.16142L70.4003 1.6842H72.6649L73.4079 3.39208V1.6842H76.223L76.6653 2.9186L77.0942 1.6842H80V7.16145H72.3294L71.9816 6.29805H71.054L70.7087 7.16142H69.0909H68Z" fill="white"/>
<path d="M70.9016 13.64V9.53888H74.2515V10.4562H71.939V11.1578H74.1975V12.0212H71.939V12.7497H74.2515V13.64H70.9016ZM74.3815 13.64L76.0126 11.6148L74.3427 9.53888H75.6361L76.6306 10.8222L77.6285 9.53888H78.8712L77.2232 11.5895L78.8573 13.64H77.5641L76.5985 12.377L75.6563 13.64H74.3815Z" fill="#016FD0"/>
<path d="M74.089 2.38147V6.48264H75.1156V3.46073L76.2068 6.48264H77.1071L78.1953 3.46073V6.48264H79.2219V2.38147H77.601L76.6733 5.03172L75.723 2.38752L74.089 2.38147Z" fill="#016FD0"/>
<path fill-rule="evenodd" clip-rule="evenodd" d="M70.864 2.38217L69.0979 6.48334H70.2477L70.5736 5.66208H72.4681L72.7922 6.48334H73.9674L72.2029 2.38217H70.864ZM72.0949 4.77172L71.5175 3.3366L70.9383 4.77172H72.0949Z" fill="#016FD0"/>
<rect x="84" width="24" height="16" rx="4" fill="white"/>
<mask id="mask0_1531_11813" style="mask-type:luminance" maskUnits="userSpaceOnUse" x="90" y="3" width="12" height="10">
<path d="M90.3599 3.12781H101.542V12.7519H90.3599V3.12781Z" fill="white"/>
</mask>
<g mask="url(#mask0_1531_11813)">
<path fill-rule="evenodd" clip-rule="evenodd" d="M95.2345 12.7518C92.5606 12.764 90.3599 10.6074 90.3599 7.98159C90.3599 5.11192 92.5606 3.12697 95.2345 3.1275H96.4878C99.1299 3.12697 101.542 5.11085 101.542 7.98159C101.542 10.6061 99.1299 12.7518 96.4878 12.7518H95.2345Z" fill="#004C97"/>
</g>
<mask id="mask1_1531_11813" style="mask-type:luminance" maskUnits="userSpaceOnUse" x="90" y="3" width="11" height="10">
<path d="M90.3599 3.12781H100.26V12.7519H90.3599V3.12781Z" fill="white"/>
</mask>
<g mask="url(#mask1_1531_11813)">
<path fill-rule="evenodd" clip-rule="evenodd" d="M95.2345 12.7518C92.5606 12.764 90.3599 10.6074 90.3599 7.98159C90.3599 5.11192 92.5606 3.12697 95.2345 3.1275H95.3047C97.9465 3.12697 100.26 5.11085 100.26 7.98159C100.26 10.6061 97.9465 12.7518 95.3047 12.7518H95.2345Z" fill="#004C97"/>
</g>
<path fill-rule="evenodd" clip-rule="evenodd" d="M95.2453 3.52576C92.8019 3.52655 90.822 5.49823 90.822 7.93138C90.822 10.364 92.8019 12.3354 95.2453 12.3357C97.689 12.3357 99.6691 10.364 99.6699 7.93138C99.6691 5.49796 97.6887 3.52629 95.2453 3.52576Z" fill="#FEFEFE"/>
<path fill-rule="evenodd" clip-rule="evenodd" d="M94.2409 10.5363V5.32554C93.1894 5.7289 92.4438 6.74207 92.4412 7.93145C92.4438 9.12029 93.1897 10.134 94.2409 10.5363ZM98.05 7.93145C98.0479 6.74154 97.3012 5.72704 96.2486 5.32501V10.5376C97.3012 10.1351 98.0481 9.12162 98.05 7.93145Z" fill="#004C97"/>
</svg>

<svg xmlns="http://www.w3.org/2000/svg" width="108" height="16" fill="none" viewBox="0 0 108 16"><rect width="24" height="16" fill="#1434cb" rx="4"/><path fill="#fff" d="M14.864 4.812c-1.372 0-2.598.71-2.598 2.023 0 1.506 2.174 1.61 2.174 2.366 0 .319-.365.604-.989.604-.885 0-1.546-.399-1.546-.399l-.284 1.325s.763.337 1.774.337c1.5 0 2.68-.746 2.68-2.081 0-1.59-2.183-1.692-2.183-2.394 0-.25.3-.523.922-.523.702 0 1.274.29 1.274.29l.277-1.28s-.623-.268-1.501-.268m-12.55.097-.034.193s.577.105 1.097.316c.67.241.717.382.83.818l1.228 4.732H7.08l2.537-6.06H7.975l-1.63 4.12-.665-3.492c-.06-.4-.37-.627-.748-.627zm7.964 0L8.99 10.968h1.566l1.284-6.06zm8.737 0c-.378 0-.578.202-.725.555l-2.294 5.504h1.642l.318-.917h2.001l.194.917H21.6l-1.265-6.06zm.214 1.637.487 2.273H18.41z"/><rect width="24" height="16" x="28" fill="#000" rx="4"/><path fill="#eb001b" d="M37.719 11.79c2.12 0 3.84-1.724 3.84-3.85a3.844 3.844 0 0 0-3.84-3.85 3.844 3.844 0 0 0-3.84 3.85 3.844 3.844 0 0 0 3.84 3.85"/><path fill="#f79e1b" d="M42.356 11.79c2.12 0 3.84-1.724 3.84-3.85a3.844 3.844 0 0 0-3.84-3.85 3.844 3.844 0 0 0-3.839 3.85 3.844 3.844 0 0 0 3.84 3.85"/><path fill="#ff5f00" d="M40.037 4.866a3.84 3.84 0 0 1 1.52 3.066 3.85 3.85 0 0 1-1.52 3.069 3.84 3.84 0 0 1-1.52-3.069c0-1.253.597-2.364 1.52-3.066"/><rect width="24" height="16" x="56" fill="#016fd0" rx="4"/><path fill="#fff" d="M70.199 14.338V8.861h5.807l.623.811.643-.81H80v1.153l-1.31 1.532 1.31 1.53v1.261h-2.777l-.622-.828-.632.828zM68 7.161l2.4-5.477h2.265l.743 1.708V1.684h2.815l.442 1.235.43-1.235H80v5.477h-7.67l-.348-.863h-.928l-.345.863z"/><path fill="#016fd0" d="M70.902 13.64V9.539h3.35v.917h-2.313v.702h2.259v.863h-2.259v.729h2.313v.89zm3.48 0 1.63-2.025-1.67-2.076h1.294l.995 1.283.998-1.283h1.242l-1.648 2.05 1.634 2.051h-1.293l-.965-1.263-.943 1.263zm-.293-11.259v4.102h1.027V3.46l1.09 3.022h.901l1.088-3.022v3.022h1.027V2.38H77.6l-.928 2.65-.95-2.643z"/><path fill="#016fd0" fill-rule="evenodd" d="m70.864 2.382-1.766 4.101h1.15l.326-.82h1.894l.324.82h1.175l-1.764-4.1zm1.23 2.39-.576-1.435-.58 1.435z" clip-rule="evenodd"/><rect width="24" height="16" x="84" fill="#fff" rx="4"/><mask id="a" width="12" height="10" x="90" y="3" maskUnits="userSpaceOnUse" style="mask-type:luminance"><path fill="#fff" d="M90.36 3.128h11.182v9.624H90.36z"/></mask><g mask="url(#a)"><path fill="#004c97" fill-rule="evenodd" d="M95.235 12.752c-2.674.012-4.875-2.145-4.875-4.77 0-2.87 2.2-4.855 4.874-4.854h1.254c2.642-.001 5.054 1.983 5.054 4.854 0 2.624-2.412 4.77-5.054 4.77z" clip-rule="evenodd"/></g><mask id="b" width="11" height="10" x="90" y="3" maskUnits="userSpaceOnUse" style="mask-type:luminance"><path fill="#fff" d="M90.36 3.128h9.9v9.624h-9.9z"/></mask><g mask="url(#b)"><path fill="#004c97" fill-rule="evenodd" d="M95.235 12.752c-2.674.012-4.875-2.145-4.875-4.77 0-2.87 2.2-4.855 4.874-4.854h.07c2.642-.001 4.956 1.983 4.956 4.854 0 2.624-2.314 4.77-4.955 4.77z" clip-rule="evenodd"/></g><path fill="#fefefe" fill-rule="evenodd" d="M95.245 3.526c-2.443 0-4.423 1.972-4.423 4.405s1.98 4.404 4.423 4.405c2.444 0 4.424-1.972 4.425-4.405s-1.981-4.405-4.425-4.405" clip-rule="evenodd"/><path fill="#004c97" fill-rule="evenodd" d="M94.24 10.536v-5.21a2.8 2.8 0 0 0-1.799 2.605 2.8 2.8 0 0 0 1.8 2.605m3.81-2.605a2.8 2.8 0 0 0-1.801-2.606v5.213a2.795 2.795 0 0 0 1.8-2.608" clip-rule="evenodd"/></svg>
